public/static/icons/ic_mastercard.svg

<svg height="24" viewBox="0 0 36 24" width="36" xmlns="http://www.w3.org/2000/svg"><g fill="none" transform="translate(.5 1)"><path d="m12.069 2.27h10.21v16.68h-10.21z" fill="#f26122"/><path d="m13.1686965 10.6101654c-.0168648-3.24646572 1.4577071-6.32094812 4-8.34000002-4.3497486-3.42070515-10.59805198-2.92397993-14.35270599 1.1410059-3.75465401 4.06498583-3.75465401 10.33300232 0 14.39798822 3.75465401 4.0649858 10.00295739 4.561711 14.35270599 1.1410059-2.5422929-2.0190519-4.0168648-5.0935343-4-8.34z" fill="#ea1d25"/><path d="m34.3286965 10.6101654c-.0026131 4.0593442-2.321149 7.7613981-5.9721329 9.5358273s-7.9944021 1.3101783-11.1878671-1.1958273c4.600057-3.6220434 5.3966531-10.28570388 1.78-14.89000002-.5184495-.66672993-1.116185-1.26782352-1.78-1.79 3.193465-2.50600559 7.5368832-2.97025656 11.1878671-1.19582732s5.9695198 5.47648307 5.9721329 9.53582734z" fill="#f69e1e"/></g></svg>

<svg xmlns="http://www.w3.org/2000/svg" width="36" height="24" viewBox="0 0 36 24">
  <g fill="none" transform="translate(.5 1)">
    <rect width="10.21" height="16.68" x="12.069" y="2.27" fill="#F26122"/>
    <path fill="#EA1D25" d="M13.1686965,10.6101654 C13.1518317,7.36369968 14.6264036,4.28921728 17.1686965,2.27016538 C12.8189479,-1.15053977 6.57064452,-0.65381455 2.81599051,3.41117128 C-0.938663503,7.47615711 -0.938663503,13.7441736 2.81599051,17.8091595 C6.57064452,21.8741453 12.8189479,22.3708705 17.1686965,18.9501654 C14.6264036,16.9311135 13.1518317,13.8566311 13.1686965,10.6101654 Z"/>
    <path fill="#F69E1E" d="M34.3286965,10.6101654 C34.3260834,14.6695096 32.0075475,18.3715635 28.3565636,20.1459927 C24.7055797,21.9204219 20.3621615,21.456171 17.1686965,18.9501654 C21.7687535,15.328122 22.5653496,8.66446152 18.9486965,4.06016538 C18.430247,3.39343545 17.8325115,2.79234186 17.1686965,2.27016538 C20.3621615,-0.235840209 24.7055797,-0.700091182 28.3565636,1.07433806 C32.0075475,2.8487673 34.3260834,6.55082113 34.3286965,10.6101654 L34.3286965,10.6101654 Z"/>
  </g>
</svg>
